src/app/client/src/assets/images/add-member@2x.svg

<?xml version="1.0" encoding="UTF-8"?>
<svg width="198px" height="210px" viewBox="0 0 198 210" version="1.1" xmlns="http://www.w3.org/2000/svg" xmlns:xlink="http://www.w3.org/1999/xlink">
    <title>970DB3FB-7365-4066-8DDB-ED1761E181FF@2x</title>
    <defs>
        <path d="M32.2660767,16.1330383 C32.2660767,25.0437574 25.0427494,32.2660767 16.1330383,32.2660767 C7.22231926,32.2660767 5.1478819e-14,25.0437574 5.1478819e-14,16.1330383 C5.1478819e-14,7.22332726 7.22231926,3.35731428e-14 16.1330383,3.35731428e-14 C25.0427494,3.35731428e-14 32.2660767,7.22332726 32.2660767,16.1330383" id="path-1"></path>
        <path d="M0.778922074,11.2512344 C3.51210364,2.73496045 12.6314788,-1.9542522 21.1487647,0.778929366 C29.6650387,3.51211093 34.3542513,12.6314861 31.6210698,21.1477601 C28.8878882,29.665046 19.7685131,34.3542586 11.2522391,31.6210771 C2.73495316,28.8878955 -1.95425949,19.7685204 0.778922074,11.2512344" id="path-3"></path>
        <path d="M0.778922074,11.2512344 C3.51210364,2.73496045 12.6314788,-1.9542522 21.1487647,0.778929366 C29.6650387,3.51211093 34.3542513,12.6314861 31.6210698,21.1477601 C28.8878882,29.665046 19.7685131,34.3542586 11.2522391,31.6210771 C2.73495316,28.8878955 -1.95425949,19.7685204 0.778922074,11.2512344" id="path-5"></path>
    </defs>
    <g id="Page-3" stroke="none" stroke-width="1" fill="none" fill-rule="evenodd">
        <g id="Specific-Group_-Empty-state" transform="translate(-1087.000000, -539.000000)">
            <g id="add-member" transform="translate(1088.000000, 539.000000)">
                <g id="Group-3" opacity="0.222353981" fill="#B5C9D1">
                    <path d="M45.562546,136.149697 C45.562546,136.149697 62.0300784,92.5102314 38.1738088,91.7704687 C14.3172674,91.0309782 -11.9086718,85.1136934 5.82185074,52.9389161 C23.5518296,20.7641389 50.1327979,-17.3279232 88.7404447,8.55968783 C127.348092,34.447571 127.088208,39.6250932 153.259778,40.3645837 C179.431077,41.1043464 215.999889,76.2379021 185.341251,92.5102314 C154.682341,108.782561 165.141835,114.699573 153.447895,132.081547 C141.754226,149.46352 5.1474042,253.014781 45.562546,136.149697" id="Fill-1"></path>
                </g>
                <g id="Group-46" transform="translate(165.500000, 121.500000) scale(-1, 1) translate(-165.500000, -121.500000) translate(135.000000, 33.000000)">
                    <path d="M60.7659562,170.147355 C60.7659562,173.746922 48.9189334,176.66609 34.3049509,176.66609 C19.6899604,176.66609 7.84293766,173.746922 7.84293766,170.147355 C7.84293766,166.547787 19.6899604,163.628619 34.3049509,163.628619 C48.9189334,163.628619 60.7659562,166.547787 60.7659562,170.147355" id="Fill-1" fill="#000000" opacity="0.100000001"></path>
                    <path d="M47.7464076,82.0985675 L9.20859364,82.0985675 C4.54077873,82.0985675 0.757004617,78.2631279 0.757004617,73.5325844 L0.757004617,8.56598312 C0.757004617,3.8344316 4.54077873,0 9.20859364,0 L47.7464076,0 C52.4132281,0 56.1970022,3.8344316 56.1970022,8.56598312 L56.1970022,73.5325844 C56.1970022,78.2631279 52.4132281,82.0985675 47.7464076,82.0985675" id="Fill-11" fill="#628EB4"></path>
                    <path d="M49.5913702,83.3585675 L10.5273422,83.3585675 C5.79579067,83.3585675 1.96035106,79.5231279 1.96035106,74.7925844 L1.96035106,9.82598306 C1.96035106,5.09443155 5.79579067,1.25999995 10.5273422,1.25999995 L49.5913702,1.25999995 C54.3219137,1.25999995 58.1573533,5.09443155 58.1573533,9.82598306 L58.1573533,74.7925844 C58.1573533,79.5231279 54.3219137,83.3585675 49.5913702,83.3585675" id="Fill-11-Copy" fill="#7EB1DC"></path>
                    <g id="Fill-31" transform="translate(13.926217, 10.043207)">
                        <mask id="mask-2" fill="white">
                            <use xlink:href="#path-1"></use>
                        </mask>
                        <use id="Mask" fill="#5D99CC" xlink:href="#path-1"></use>
                        <path d="M25.5240694,31.509976 C25.5240694,36.6961354 21.3197018,40.900503 16.1335423,40.900503 C10.9463749,40.900503 6.7420073,36.6961354 6.7420073,31.509976 C6.7420073,26.3228085 10.9463749,22.1194489 16.1335423,22.1194489 C21.3197018,22.1194489 25.5240694,26.3228085 25.5240694,31.509976" fill="#B8DEFF" mask="url(#mask-2)"></path>
                    </g>
                    <path d="M36.6556067,26.1762454 C36.6556067,29.819157 33.702167,32.7725967 30.0592554,32.7725967 C26.4163437,32.7725967 23.462904,29.819157 23.462904,26.1762454 C23.462904,22.5333338 26.4163437,19.5798941 30.0592554,19.5798941 C33.702167,19.5798941 36.6556067,22.5333338 36.6556067,26.1762454" id="Fill-30" fill="#B8DEFF"></path>
                    <polygon id="Fill-32" fill="#B8DEFF" points="11.1696397 52.5196171 48.9484678 52.5196171 48.9484678 48.6035375 11.1696397 48.6035375"></polygon>
                    <polygon id="Fill-33" fill="#B8DEFF" points="17.772039 58.6381764 42.3460685 58.6381764 42.3460685 54.7220968 17.772039 54.7220968"></polygon>
                    <path d="M41.209347,166.019897 L41.128707,167.471417 L34.2138277,165.990665 C34.4053477,165.304218 34.5666277,164.830458 34.5666277,164.830458 L41.209347,166.019897 Z" id="Fill-13" fill="#F7AA66"></path>
                    <path d="M38.0898897,70.2097089 C38.0203377,73.1429886 34.1788501,73.9695485 34.1788501,73.9695485 L34.1788501,75.3535324 L28.8969307,75.1892284 L28.8969307,70.2711969 C29.1086107,70.7842689 29.3716986,71.1481568 29.7335706,71.1874688 C31.1649305,71.3386688 35.98317,71.7922688 36.4367699,67.0445893 C36.8913779,62.3069897 37.4246098,63.6476296 38.2914897,62.2263498 C38.6442897,64.6354695 38.1402897,68.2844291 38.0898897,70.2097089" id="Fill-14" fill="#F7AA66"></path>
                    <path d="M51.0472244,172.652638 C50.4928245,173.762445 36.5118659,171.958126 34.5059461,171.403726 C33.0645063,170.999518 33.7297862,167.763838 34.2136261,165.990766 L41.1285054,167.471518 L41.0881854,168.227518 C41.0881854,168.227518 51.6016243,171.543838 51.0472244,172.652638" id="Fill-15" fill="#2D2B37"></path>
                    <path d="M42.6810269,167.169622 L34.3347877,165.587062 C34.9194277,159.397943 38.9816672,143.915065 38.9816672,142.171225 C38.9816672,140.436457 34.5263077,130.760666 34.5263077,130.760666 C34.4456677,130.739498 34.3751077,130.710266 34.3045477,130.690106 C28.9823083,128.986586 25.9583086,126.335546 24.3253488,123.482907 C21.966629,119.370267 22.4907889,114.844348 23.1459889,112.183228 C32.6010279,114.57118 39.5965472,111.598588 39.5965472,111.598588 L39.5360672,112.485628 C42.9935068,116.467227 48.7592662,132.282746 49.1725462,138.572665 C49.5959062,144.851496 42.6810269,167.169622 42.6810269,167.169622" id="Fill-16" fill="#9ABFC3"></path>
                    <path d="M60.0256811,71.935304 C59.9158091,73.0824078 59.1275532,78.7745832 59.1275532,78.7745832 L55.5249615,77.1083594 L57.2274734,71.668184 C57.2274734,71.668184 56.4039374,68.2067123 57.2274734,66.8076085 C58.0510093,65.4074966 57.6488173,68.5766483 58.0600813,68.4123443 C58.0600813,68.4123443 58.0207693,67.6644084 58.1215693,66.3136885 L58.1215693,64.1394328 C58.1215693,64.1394328 60.920785,62.6133209 60.0256811,71.935304" id="Fill-17" fill="#F7AA66"></path>
                    <path d="M59.7569483,78.1122265 L59.1309804,81.2571862 C58.4969484,84.4021459 57.1351406,86.9120656 54.7270288,87.0239536 C52.3169011,87.1237456 43.09471,86.7013936 43.09471,86.7013936 L39.7471424,109.542671 C34.022711,111.054671 27.3396716,110.419631 23.871144,109.915631 C23.881224,109.885391 23.892312,109.864223 23.892312,109.864223 L23.892312,103.483584 C23.892312,103.483584 21.5729042,104.642784 19.6375444,104.835312 C17.7021846,105.025824 16.9270327,108.322991 16.5429848,93.9993129 C16.1498648,79.6857144 22.7331121,79.4931864 26.0181838,77.7503546 C29.3042634,76.0055067 28.4787115,75.1900348 28.4787115,75.1900348 L33.759623,74.7051869 L34.2938629,74.6547869 L34.4057509,76.1264667 C34.4057509,76.1264667 40.3731103,76.8522266 42.992902,76.8522266 C45.6147098,76.8522266 52.2171091,80.1080663 52.941861,80.4205463 C53.6787089,80.7340342 55.4618607,76.1264667 55.4618607,76.1264667 L59.7569483,78.1122265 Z" id="Fill-18" fill="#DF5F4D"></path>
                    <polygon id="Fill-19" fill="#302293" points="30.8064857 165.33476 27.349046 164.83076 30.8266457 164.83076"></polygon>
                    <path d="M37.066165,170.022363 C37.066165,170.022363 27.520406,170.303595 25.3028063,170.022363 C23.7908064,169.839915 24.4964063,167.472123 25.0911263,166.000443 L30.7661657,166.352235 L30.6966137,168.087003 C39.2736848,169.054683 37.066165,170.022363 37.066165,170.022363" id="Fill-20" fill="#2D2B37"></path>
                    <path d="M30.8064857,165.33476 L30.7661657,166.35284 L25.0911263,166.00004 C25.3733662,165.32468 25.6253662,164.83076 25.6253662,164.83076 L27.349046,164.83076 L30.8064857,165.33476 Z" id="Fill-21" fill="#F7AA66"></path>
                    <path d="M38.2916913,62.2165722 L38.2916913,62.2266522 C37.4248114,63.647932 36.8905715,62.3072921 36.4369715,67.0448917 C35.9833716,71.7925712 31.1651321,71.3389712 29.7337722,71.1867632 C29.3708922,71.1474512 29.1088123,70.7845713 28.8971323,70.2704913 C28.3024123,68.7474035 28.1814524,65.8554518 27.3952124,65.6830838 C26.3368125,65.4623318 26.4174525,62.2165722 26.4174525,62.2165722 C28.8265723,57.6301726 33.8766518,57.9224926 35.8321716,57.7007326 C37.7876914,57.4789726 39.1484912,60.7852123 38.2916913,62.2165722" id="Fill-22" fill="#2D3E50"></path>
                    <path d="M33.991967,133.371083 C33.367007,138.804203 32.3892471,147.392362 32.0969272,149.156362 C31.6735672,151.767081 31.6735672,166.0202 31.6735672,166.0202 L23.922048,165.396248 L24.284928,127.494444 C26.5025277,130.216044 29.7694554,133.018283 33.991967,133.371083" id="Fill-23" fill="#81A1A5"></path>
                    <path d="M39.7475456,109.542369 L39.5973536,111.598689 C39.5973536,111.598689 32.6008263,114.57128 23.1457873,112.183329 C23.4481872,110.952561 23.7808272,110.115921 23.8715472,109.915329 C27.3390668,110.419329 34.0221062,111.054369 39.7475456,109.542369" id="Fill-24" fill="#2D2B37"></path>
                    <path d="M36.2579507,68.042106 C36.2579507,68.042106 35.8880148,69.9683938 36.8939987,69.5077378 C37.8999826,69.0470818 38.1408945,69.1992898 38.1408945,69.1992898 C38.1408945,69.1992898 39.0954704,72.5670175 38.1408945,73.1113374 C37.1873266,73.6566654 34.1784469,73.9701533 34.1784469,73.9701533 L36.2579507,68.042106 Z" id="Fill-25" fill="#2D3E50"></path>
                    <polygon id="Fill-26" fill="#A44133" points="23.8922112 103.483483 25.366915 87.1790848 23.1462913 87.1790848"></polygon>
                    <path d="M34.3049509,130.689703 C34.2132229,131.425543 34.1134309,132.343831 33.991463,133.370982 C29.7689514,133.01919 26.5030317,130.215943 24.285432,127.494343 L24.325752,123.483511 C25.9587118,126.336151 28.9827115,128.987191 34.3049509,130.689703" id="Fill-27" fill="#537276"></path>
                    <polygon id="Fill-28" fill="#251F77" points="30.8576921 165.344638 30.7659641 166.352638 30.8062841 165.334558"></polygon>
                </g>
                <g id="Group-6" transform="translate(0.000000, 14.000000)">
                    <path d="M47.2935289,81.8999978 L8.50546873,81.8999978 C3.80834414,81.8999978 0,78.0738349 0,73.354733 L0,8.54526479 C0,3.82515736 3.80834414,0 8.50546873,0 L47.2935289,0 C51.9906535,0 55.7999985,3.82515736 55.7999985,8.54526479 L55.7999985,73.354733 C55.7999985,78.0738349 51.9906535,81.8999978 47.2935289,81.8999978" id="Fill-12" stroke="#A7BDCC" stroke-width="0.899999976" stroke-dasharray="3.599999904632568"></path>
                    <g id="Fill-34-Copy-+-Fill-34-Copy-2-Mask" transform="translate(11.700000, 24.299999)">
                        <mask id="mask-4" fill="white">
                            <use xlink:href="#path-3"></use>
                        </mask>
                        <use id="Mask" fill="#FBFFFF" xlink:href="#path-3"></use>
                        <path d="M10.4884892,10.8671246 C11.5007787,7.71294899 14.8783252,5.97620351 18.0328756,6.98849301 C21.1870512,8.0007825 22.9237967,11.3783289 21.9115072,14.5325046 C20.8992177,17.687055 17.5216713,19.4238005 14.3674956,18.411511 C11.2129452,17.3992215 9.47619974,14.021675 10.4884892,10.8671246" id="Fill-34-Copy" fill="#A7BDCC" mask="url(#mask-4)"></path>
                        <path d="M1.92122373,29.1178106 C4.45194747,21.2323715 12.8958136,16.8905078 20.7821896,19.4212316 C28.6676287,21.9519553 33.0094924,30.3958214 30.4787687,38.2812605 C27.9480449,46.1676365 19.5041788,50.5095002 11.6187397,47.9787765 C3.73236368,45.4480527 -0.609500007,37.0041866 1.92122373,29.1178106" id="Fill-34-Copy-2" fill="#A7BDCC" mask="url(#mask-4)"></path>
                    </g>
                </g>
                <g id="Group-6-Copy-2" transform="translate(67.000000, 14.000000)">
                    <path d="M47.2935289,81.8999978 L8.50546873,81.8999978 C3.80834414,81.8999978 0,78.0738349 0,73.354733 L0,8.54526479 C0,3.82515736 3.80834414,0 8.50546873,0 L47.2935289,0 C51.9906535,0 55.7999985,3.82515736 55.7999985,8.54526479 L55.7999985,73.354733 C55.7999985,78.0738349 51.9906535,81.8999978 47.2935289,81.8999978" id="Fill-12" stroke="#A7BDCC" stroke-width="0.899999976" stroke-dasharray="3.599999904632568"></path>
                    <g id="Fill-34-Copy-+-Fill-34-Copy-2-Mask" transform="translate(11.000000, 24.299999)">
                        <mask id="mask-6" fill="white">
                            <use xlink:href="#path-5"></use>
                        </mask>
                        <use id="Mask" fill="#FBFFFF" xlink:href="#path-5"></use>
                        <path d="M10.4884892,10.8671246 C11.5007787,7.71294899 14.8783252,5.97620351 18.0328756,6.98849301 C21.1870512,8.0007825 22.9237967,11.3783289 21.9115072,14.5325046 C20.8992177,17.687055 17.5216713,19.4238005 14.3674956,18.411511 C11.2129452,17.3992215 9.47619974,14.021675 10.4884892,10.8671246" id="Fill-34-Copy" fill="#A7BDCC" mask="url(#mask-6)"></path>
                        <path d="M1.92122373,29.1178106 C4.45194747,21.2323715 12.8958136,16.8905078 20.7821896,19.4212316 C28.6676287,21.9519553 33.0094924,30.3958214 30.4787687,38.2812605 C27.9480449,46.1676365 19.5041788,50.5095002 11.6187397,47.9787765 C3.73236368,45.4480527 -0.609500007,37.0041866 1.92122373,29.1178106" id="Fill-34-Copy-2" fill="#A7BDCC" mask="url(#mask-6)"></path>
                    </g>
                </g>
            </g>
        </g>
    </g>
</svg>

<svg xmlns="http://www.w3.org/2000/svg" xmlns:xlink="http://www.w3.org/1999/xlink" width="198" height="210" xmlns:v="https://vecta.io/nano"><defs><path d="M32.266 16.133c0 8.91-7.223 16.133-16.133 16.133S0 25.044 0 16.133 7.222 0 16.133 0s16.133 7.223 16.133 16.133" id="A"/><path d="M.78 11.25A16.2 16.2 0 0 1 21.149.779a16.2 16.2 0 0 1 10.472 20.369c-2.733 8.517-11.853 13.206-20.37 10.473A16.2 16.2 0 0 1 .779 11.251" id="B"/><path id="C" d="M47.294 81.9H8.505C3.808 81.9 0 78.074 0 73.355V8.545C0 3.825 3.808 0 8.505 0h38.788C51.99 0 55.8 3.825 55.8 8.545v64.81c0 4.72-3.81 8.545-8.506 8.545"/><path id="D" d="M10.488 10.867a6 6 0 0 1 7.544-3.879 6 6 0 0 1 3.879 7.544 6 6 0 0 1-7.544 3.879 6 6 0 0 1-3.879-7.544"/><path id="E" d="M1.92 29.118a15 15 0 0 1 18.861-9.697 15 15 0 0 1 9.697 18.86 15 15 0 0 1-18.86 9.698 15 15 0 0 1-9.698-18.861"/></defs><g transform="translate(1)" fill="none" fill-rule="evenodd"><path d="M45.563 136.15s16.468-43.64-7.39-44.38S-11.91 85.114 5.822 52.94s44.31-70.267 82.92-44.38 38.348 31.065 64.52 31.805S216 76.238 185.34 92.5s-20.2 22.19-31.893 39.57-148.3 120.933-107.885 4.068" opacity=".222" fill="#b5c9d1"/><g transform="matrix(-1 0 0 1 196 33)"><path d="M60.766 170.147c0 3.6-11.847 6.52-26.46 6.52s-26.462-2.92-26.462-6.52 11.847-6.52 26.462-6.52 26.46 2.92 26.46 6.52" fill="#000" opacity=".1"/><path d="M47.746 82.1H9.21C4.54 82.1.757 78.263.757 73.533V8.566C.757 3.834 4.54 0 9.21 0h38.538c4.667 0 8.45 3.834 8.45 8.566v64.967c0 4.73-3.784 8.566-8.45 8.566" fill="#628eb4"/><path d="M49.59 83.36H10.527a8.57 8.57 0 0 1-8.567-8.566V9.826a8.57 8.57 0 0 1 8.567-8.566H49.59a8.57 8.57 0 0 1 8.566 8.566v64.967a8.57 8.57 0 0 1-8.566 8.566" fill="#7eb1dc"/><g transform="translate(13.926 10.043)"><mask id="F" fill="#fff"><use xlink:href="#A"/></mask><use fill="#5d99cc" xlink:href="#A"/><path d="M25.524 31.5c0 5.186-4.204 9.39-9.39 9.39s-9.392-4.204-9.392-9.39 4.204-9.39 9.392-9.39a9.39 9.39 0 0 1 9.391 9.391" fill="#b8deff" mask="url(#F)"/></g><path d="M36.656 26.176a6.6 6.6 0 0 1-6.596 6.596 6.6 6.6 0 0 1-6.596-6.596 6.6 6.6 0 0 1 6.596-6.596 6.6 6.6 0 0 1 6.596 6.596M11.17 52.52h37.78v-3.916H11.17zm6.602 6.118h24.574v-3.916H17.772z" fill="#b8deff"/><path d="M41.2 166.02l-.08 1.452-6.915-1.48.353-1.16 6.643 1.2zM38.1 70.2c-.07 2.933-3.9 3.76-3.9 3.76v1.384l-5.282-.164v-4.9c.212.513.475.877.837.916 1.43.15 6.25.605 6.703-4.143.455-4.738.988-3.397 1.855-4.818.353 2.4-.15 6.058-.202 7.983" fill="#f7aa66"/><path d="M51.047 172.653c-.554 1.1-14.535-.695-16.54-1.25-1.44-.404-.776-3.64-.292-5.413l6.915 1.48-.04.756s10.513 3.316 9.96 4.425" fill="#2d2b37"/><path d="M42.68 167.17l-8.346-1.583c.585-6.19 4.647-21.672 4.647-23.416 0-1.735-4.455-11.41-4.455-11.41-.08-.02-.15-.05-.222-.07-5.322-1.704-8.346-4.355-9.98-7.207-2.36-4.113-1.835-8.64-1.18-11.3 9.455 2.388 16.45-.585 16.45-.585l-.06.887c3.457 3.982 9.223 19.797 9.636 26.087.423 6.28-6.492 28.597-6.492 28.597" fill="#9abfc3"/><path d="M60.026 71.935l-.898 6.84-3.603-1.666 1.703-5.44s-.824-3.46 0-4.86.42 1.77.833 1.605c0 0-.04-.748.06-2.1V64.14s2.8-1.526 1.904 7.796" fill="#f7aa66"/><path d="M59.757 78.112l-.626 3.145c-.634 3.145-1.996 5.655-4.404 5.767-2.4.1-11.632-.323-11.632-.323l-3.348 22.84c-5.724 1.512-12.407.877-15.876.373.01-.03.02-.05.02-.05v-6.38s-2.32 1.16-4.255 1.352-2.71 3.488-3.095-10.836c-.393-14.314 6.2-14.506 9.475-16.25s2.46-2.56 2.46-2.56l5.815-.535.112 1.472s5.967.726 8.587.726 9.224 3.256 9.95 3.568c.737.313 2.52-4.294 2.52-4.294l4.295 1.986z" fill="#df5f4d"/><path fill="#302293" d="M30.806 165.335l-3.457-.504h3.478z"/><path d="M37.066 170.022s-9.546.28-11.763 0c-1.512-.182-.806-2.55-.212-4.022l5.675.352-.07 1.735c8.577.968 6.37 1.935 6.37 1.935" fill="#2d2b37"/><path d="M30.806 165.335l-.04 1.018L25.09 166l.534-1.17h1.724l3.457.504z" fill="#f7aa66"/><path d="M38.292 62.217v.01c-.867 1.42-1.4.08-1.855 4.818-.454 4.748-5.272 4.294-6.703 4.142-.363-.04-.625-.402-.837-.916-.595-1.523-.716-4.415-1.502-4.587-1.058-.22-.978-3.467-.978-3.467 2.41-4.586 7.46-4.294 9.415-4.516s3.316 3.084 2.46 4.516" fill="#2d3e50"/><path d="M33.992 133.37l-1.895 15.785c-.423 2.61-.423 16.864-.423 16.864l-7.752-.624.363-37.902c2.218 2.722 5.485 5.524 9.707 5.877" fill="#81a1a5"/><path d="M39.748 109.542l-.15 2.056s-6.997 2.973-16.452.585c.302-1.23.635-2.067.726-2.268 3.468.504 10.15 1.14 15.876-.373" fill="#2d2b37"/><path d="M36.258 68.042s-.37 1.926.636 1.466 1.247-.308 1.247-.308.955 3.368 0 3.912-3.962.86-3.962.86l2.08-5.928z" fill="#2d3e50"/><path fill="#a44133" d="M23.892 103.483l1.475-16.304h-2.22z"/><path d="M34.305 130.7l-.313 2.68c-4.223-.352-7.488-3.155-9.706-5.877l.04-4.01c1.633 2.853 4.657 5.504 9.98 7.206" fill="#537276"/><path fill="#251f77" d="M30.858 165.345l-.092 1.008.04-1.018z"/></g><g transform="translate(0 14)"><use xlink:href="#C" stroke="#a7bdcc" stroke-width=".9" stroke-dasharray="3.599999904632568"/><g transform="translate(11.7 24.3)"><mask id="G" fill="#fff"><use xlink:href="#B"/></mask><use fill="#fbffff" xlink:href="#B"/><g fill="#a7bdcc"><use xlink:href="#D" mask="url(#G)"/><use xlink:href="#E" mask="url(#G)"/></g></g></g><g transform="translate(67 14)"><use xlink:href="#C" stroke="#a7bdcc" stroke-width=".9" stroke-dasharray="3.599999904632568"/><g transform="translate(11 24.3)"><mask id="H" fill="#fff"><use xlink:href="#C" href="#B"/></mask><use fill="#fbffff" xlink:href="#C" href="#B"/><g fill="#a7bdcc"><use xlink:href="#D" mask="url(#H)"/><use xlink:href="#E" mask="url(#H)"/></g></g></g></g></svg>
